static/logos/restream-glyph-color.svg

<svg width="50" height="50" viewBox="0 0 50 50" fill="none" xmlns="http://www.w3.org/2000/svg">
<g clip-path="url(#clip0_1_1237)">
<path d="M25 50C38.8073 50 50 38.8073 50 25C50 11.1929 38.8073 0 25 0C11.1929 0 0 11.1929 0 25C0 38.8073 11.1929 50 25 50Z" fill="#1D1D1B"/>
<path d="M15.625 37.5033H22.762V28.5482H24.4377L29.5124 37.5033H37.0632L31.0863 27.1574C33.7118 26.1397 35.5978 24.152 35.5978 20.5834V20.441C35.5978 15.1628 31.9615 12.5034 25.4215 12.5034H15.625V37.5033ZM22.762 23.9009V17.8901H25.1026C27.4093 17.8901 28.6711 18.6974 28.6711 20.7191V20.8616C28.6711 22.8901 27.4839 23.9009 25.0687 23.9009H22.762Z" fill="white"/>
</g>
<defs>
<clipPath id="clip0_1_1237">
<rect width="50" height="50" fill="white"/>
</clipPath>
</defs>
</svg>

<svg xmlns="http://www.w3.org/2000/svg" width="64" height="64" fill="none" viewBox="0 0 50 50"><g clip-path="url(#a)"><path fill="#1D1D1B" d="M25 50c13.807 0 25-11.193 25-25S38.807 0 25 0 0 11.193 0 25s11.193 25 25 25Z"/><path fill="#fff" d="M15.625 37.503h7.137v-8.955h1.676l5.074 8.955h7.551l-5.977-10.346c2.626-1.017 4.512-3.005 4.512-6.574v-.142c0-5.278-3.636-7.938-10.176-7.938h-9.797v25Zm7.137-13.602v-6.01h2.34c2.307 0 3.57.806 3.57 2.828v.143c0 2.028-1.188 3.039-3.603 3.039h-2.307Z"/></g><defs><clipPath id="a"><path fill="#fff" d="M0 0h50v50H0z"/></clipPath></defs></svg>
